assets/icons/icon_close.svg

<svg width="48" height="48" viewBox="0 0 48 48" fill="none" xmlns="http://www.w3.org/2000/svg">
<g clip-path="url(#clip0_2188_3076)">
<path d="M26.1196 24.0001L39.5596 10.5601C40.1496 9.97006 40.1496 9.02006 39.5596 8.44006C38.9696 7.86006 38.0196 7.85006 37.4396 8.44006L23.9996 21.8801L10.5596 8.44006C9.96957 7.85006 9.01957 7.85006 8.43957 8.44006C7.85957 9.03006 7.84957 9.98006 8.43957 10.5601L21.8796 24.0001L8.43957 37.4401C7.84957 38.0301 7.84957 38.9801 8.43957 39.5601C8.72957 39.8501 9.11957 40.0001 9.49957 40.0001C9.87957 40.0001 10.2696 39.8501 10.5596 39.5601L23.9996 26.1201L37.4396 39.5601C37.7296 39.8501 38.1196 40.0001 38.4996 40.0001C38.8796 40.0001 39.2696 39.8501 39.5596 39.5601C40.1496 38.9701 40.1496 38.0201 39.5596 37.4401L26.1196 24.0001Z" fill="black"/>
</g>
<defs>
<clipPath id="clip0_2188_3076">
<rect width="48" height="48" fill="white"/>
</clipPath>
</defs>
</svg>

<?xml version="1.0" encoding="UTF-8"?>
<svg xmlns="http://www.w3.org/2000/svg" viewBox="0 0 48 48">
  <defs>
    <style>
      .cls-1 {
        fill: none;
        opacity: .2;
      }
    </style>
  </defs>
  <g id="guid">
    <g>
      <rect class="cls-1" width="48" height="48"/>
      <rect class="cls-1" x="4" y="4" width="40" height="40"/>
    </g>
  </g>
  <g id="Layer_2" data-name="Layer 2">
    <path d="M26.12,24l13.44-13.44c.59-.59.59-1.54,0-2.12s-1.54-.59-2.12,0l-13.44,13.44-13.44-13.44c-.59-.59-1.54-.59-2.12,0s-.59,1.54,0,2.12l13.44,13.44-13.44,13.44c-.59.59-.59,1.54,0,2.12.29.29.68.44,1.06.44s.77-.15,1.06-.44l13.44-13.44,13.44,13.44c.29.29.68.44,1.06.44s.77-.15,1.06-.44c.59-.59.59-1.54,0-2.12l-13.44-13.44Z"/>
  </g>
</svg>
